X:9668
T:Little Bag of Spuds, The
S:unknown, photocopy from John Wilson
M:C
I:speed 300
K:G
|: Bd d2 ceed | BddB A2 GA | Bd d2 ceed | gabg a2 g2 :|
|: gabg ea a2 | gabg e2 d2 | gabg ea a2 | gedB A2G2 :|


